/* XPM */
static char *product_logo_32[] = {
/* columns rows colors chars-per-pixel */
"32 32 100 2 ",
"   c #A35773",
".  c #A55A76",
"X  c #A75E79",
"o  c #A95D79",
"O  c #AB667F",
"+  c #AB6780",
"@  c #AD6A83",
"#  c #B36D87",
"$  c #B6738B",
"%  c #BA758E",
"&  c #B5788E",
"*  c #B77B91",
"=  c #B97D93",
"-  c #AF8C9B",
";  c #BB8196",
":  c #BE859A",
">  c #B08B9A",
",  c #BF889C",
"<  c #B691A0",
"1  c #C1849A",
"2  c #C28DA1",
"3  c #D28FA6",
"4  c #C492A4",
"5  c #C994A7",
"6  c #C796A8",
"7  c #CF95AA",
"8  c #C798A9",
"9  c #C899AB",
"0  c #D09DAF",
"q  c #E09AB1",
"w  c #C0A1AE",
"e  c #CEA4B3",
"r  c #D1A6B6",
"t  c #DFA2B7",
"y  c #D1A8B7",
"u  c #D4A9B9",
"i  c #DEACBD",
"p  c #CFB3BE",
"a  c #D6B1BE",
"s  c #D9B1BF",
"d  c #E1A5B9",
"f  c #E5ABBF",
"g  c #D7B2C0",
"h  c #D9B6C3",
"j  c #DBB8C5",
"k  c #E5AEC1",
"l  c #E5B1C3",
"z  c #EBB4C7",
"x  c #ECB6C8",
"c  c #E6BBCA",
"v  c #EBBCCC",
"b  c #F4BBCE",
"n  c #F5BED0",
"m  c #DDC1CC",
"M  c #E0C0CB",
"N  c #E8C1CF",
"B  c #E4C4D0",
"V  c #EDC1D0",
"C  c #E6CDD6",
"Z  c #EEC9D6",
"A  c #EFCBD8",
"S  c #F6C3D5",
"D  c #F7CAD9",
"F  c #F8CDDB",
"G  c #ECD2DB",
"H  c #ECD8DF",
"J  c #F6D1DE",
"K  c #F8D1DE",
"L  c #EEDBE2",
"P  c #F6D5E0",
"I  c #F9D5E1",
"U  c #F4DCE4",
"Y  c #FAD9E5",
"T  c #F9DCE7",
"R  c #F8DEE6",
"E  c #FBDFE9",
"W  c #FCDFE9",
"Q  c #F2E0E6",
"!  c #F3E1E8",
"~  c #F3E4EA",
"^  c #F6E5EB",
"/  c #FBE2EB",
"(  c #FCE0EA",
")  c #F8E5EB",
"_  c #FBE3EC",
"`  c #FCE3EC",
"'  c #FAE7ED",
"]  c #FCE5ED",
"[  c #F7E9EE",
"{  c #FAE9EE",
"}  c #FBEDF2",
"|  c #F9EEF2",
" . c #FDEFF4",
".. c #FBF3F6",
"X. c #FCF0F4",
"o. c #FCF4F7",
"O. c #FDF5F8",
"+. c #FFFAFB",
"@. c #FFFAFC",
"#. c #FFFCFD",
/* pixels */
"] ] ] _ / / / / E E E T T T Y Y Y Y Y Y I I I I I I I K K K K F ",
"] ] ` / / / / E E E T T T Y Y Y Y Y Y I I I I I I I K K K K F F ",
"] ` / / / / E E E E T T Y Y Y Y Y Y I I I I I I I K K K K F F F ",
"_ / / / / ( ( T Y Y Y Y Y I I I P P P J J J J J J I K F F F F F ",
"/ / / / ( F 0 = $ $ $ $ $ $ $ $ $ $ $ $ $ $ $ $ % 7 V K F F F F ",
"/ / / ( Z $   $ = = = = = = = = = = = = = = = = $   # v F F F D ",
"/ / / T 1 X m ..+.O.O.O.O.O.O.O.O.O.O.O.O.O.O.O...m X = D F D D ",
"/ / ( A X 9 #.G B X.Z { ' T +.+.+.+.+.+.+.+.+.+.@.@.9 . v F D D ",
"E E ( B   h #.i 3 ) q P J S O.+.+.+.+.+.+.+.+.+.+.#.h   l D D D ",
"E E W N   j #.O.X.#.X.@.+.O.#.#.#.#.#.#.#.#.#.#.#.#.j   l D D D ",
"E T E N   2 j h h h h h h h h h h h h h h h h h h j 2   l D D D ",
"T T E N .   . . . . . . . . . . . . . . . . . . . .     l D D D ",
"T T E v   e L H H H H H H H H H H H H H H H H H H L e   l D D D ",
"T Y T v   j #.@.@.@.@.@.@.@.@.@.@.@.@.@.@.@.@.@.@.#.j   k D D D ",
"Y Y Y v   h #.+.+.+.+.@.@.+.+.+.+.+.+.@.@.+.+.+.+.#.h   k D D D ",
"Y Y Y v   h #.+.+.+.@.L m o.@.+.+.@.+.C C +.+.+.+.#.h   k D D D ",
"Y Y Y v   h #.+.+.+.+.9 X 4 ^ #.#...y O * ..+.+.+.#.h   k D D S ",
"Y Y Y c   h #.+.+.@.[ & M 6 * g j , ; B & G @.+.+.#.h   k D S S ",
"Y Y Y c   h #.+.+.#.m ; X.{ e : : 4 ! O.4 y #.+.+.#.h   k D S S ",
"Y I Y c   h #.+.+.O.2 u  .w > m m - w X.c ; | O.+.#.h   k D S S ",
"I I I c   h #.+.@.| = j  .L ^ a p ^ L  .U $ s ^ @.#.h   f S S S ",
"I I I c   h #.+.@.[ = u X.X.{ > > { X.X.B # g Q @.#.h   f S S S ",
"I I I c   h #.+.+.O.j = T | p < < p | { : e | ..+.#.h   f S S n ",
"I I I c   h #.+.+.@...4 ; G ) ' ' ' T 4 ; [ @.+.+.@.h   f S n n ",
"I I I v . r #.+.+.+.@.| 0 $ 2 r u 5 $ 2 ~ @.+.+.+.#.r   k S n n ",
"I I I D $ @ L @.@.@.@.#.@.L a 9 6 y G O.#.@.@.@.@.L @ # b n n n ",
"K K K K k o + 8 e e e e e e e e e e e e e e e e 8 + . t n n n b ",
"K K K K K l = o X X X . . . . . . . . . . . . . o % d n n n b b ",
"K K K F F F D V v v v v v v v x x x x z z z z z x b S n n b b b ",
"K K F F F F F F F D D D D D D D D D D D S S S S S n n n b b b b ",
"K F F F F F D D D D D D D D D D D D S S S S n n n n n b b b b b ",
"F F F F F D D D D D D D D D D D D S S S S n n n n n b b b b b b "
};
